src/assets/duotone/Redo.svg

<svg width="24" height="24" viewBox="0 0 24 24"  xmlns="http://www.w3.org/2000/svg">
<path opacity="0.4" d="M7.81 2H16.18C19.83 2 22 4.17 22 7.81V16.18C22 19.82 19.83 21.99 16.19 21.99H7.81C4.17 22 2 19.83 2 16.19V7.81C2 4.17 4.17 2 7.81 2Z" />
<path d="M17.53 9.16006L15.96 7.59006C15.67 7.30006 15.19 7.30006 14.9 7.59006C14.61 7.88006 14.61 8.36006 14.9 8.65006L15.23 8.98006H10.08C7.97 8.98006 6.25 10.7001 6.25 12.8101C6.25 14.9201 7.97 16.6401 10.08 16.6401H15C15.41 16.6401 15.75 16.3001 15.75 15.8901C15.75 15.4801 15.41 15.1401 15 15.1401H10.08C8.8 15.1401 7.75 14.1001 7.75 12.8101C7.75 11.5201 8.79 10.4801 10.08 10.4801H15.16L14.9 10.7401C14.61 11.0301 14.61 11.5101 14.9 11.8001C15.05 11.9501 15.24 12.0201 15.43 12.0201C15.62 12.0201 15.81 11.9501 15.96 11.8001L17.53 10.2301C17.82 9.93006 17.82 9.46006 17.53 9.16006Z" />
</svg>

<?xml version="1.0" encoding="UTF-8"?>
<svg width="24" height="24" viewBox="0 0 24 24" xmlns="http://www.w3.org/2000/svg">
 <path d="M7.81 2H16.18C19.83 2 22 4.17 22 7.81V16.18C22 19.82 19.83 21.99 16.19 21.99H7.81C4.17 22 2 19.83 2 16.19V7.81C2 4.17 4.17 2 7.81 2Z" opacity=".4"/>
 <path d="m17.53 9.1601-1.57-1.57c-0.29-0.29-0.77-0.29-1.06 0s-0.29 0.77 0 1.06l0.33 0.33h-5.15c-2.11 0-3.83 1.72-3.83 3.83s1.72 3.83 3.83 3.83h4.92c0.41 0 0.75-0.34 0.75-0.75s-0.34-0.75-0.75-0.75h-4.92c-1.28 0-2.33-1.04-2.33-2.33s1.04-2.33 2.33-2.33h5.08l-0.26 0.26c-0.29 0.29-0.29 0.77 0 1.06 0.15 0.15 0.34 0.22 0.53 0.22s0.38-0.07 0.53-0.22l1.57-1.57c0.29-0.30004 0.29-0.77004 0-1.07z"/>
</svg>
